public/assets/images/questionmark.svg

<svg width="98" height="98" viewBox="0 0 98 98" fill="none" xmlns="http://www.w3.org/2000/svg">
<path fill-rule="evenodd" clip-rule="evenodd" d="M49 98C76.062 98 98 76.062 98 49C98 21.938 76.062 0 49 0C21.938 0 0 21.938 0 49C0 76.062 21.938 98 49 98ZM43.4237 63.5292V63.9202H51.1986V63.5292C51.2418 60.8353 51.5226 58.5867 52.0409 56.7835C52.5592 54.9803 53.3907 53.4269 54.5354 52.1234C55.68 50.7982 57.2026 49.5381 59.1032 48.3432C61.0037 47.1701 62.6235 45.8231 63.9625 44.3023C65.3231 42.7815 66.3598 41.0544 67.0725 39.1208C67.8068 37.1873 68.1739 35.0256 68.1739 32.6358C68.1739 29.2467 67.3964 26.2269 65.8414 23.5764C64.308 20.9259 62.1267 18.8403 59.2975 17.3195C56.4899 15.7987 53.1856 15.0384 49.3845 15.0384C45.8858 15.0384 42.7002 15.7336 39.8278 17.124C36.977 18.5144 34.6769 20.524 32.9275 23.1528C31.1998 25.7815 30.2495 28.9425 30.0767 32.6358H38.2404C38.4132 30.0723 39.0503 27.9975 40.1517 26.4115C41.2532 24.8256 42.6246 23.6633 44.266 22.9246C45.9074 22.186 47.6135 21.8166 49.3845 21.8166C51.4146 21.8166 53.2612 22.2403 54.9241 23.0876C56.5871 23.9349 57.9153 25.1406 58.9088 26.7048C59.9022 28.2691 60.399 30.1157 60.399 32.2448C60.399 33.9611 60.0966 35.5253 59.4919 36.9374C58.9088 38.3496 58.1097 39.5988 57.0946 40.6851C56.0796 41.7496 54.9349 42.6729 53.6607 43.455C51.5442 44.7368 49.73 46.1381 48.2182 47.6589C46.7065 49.1796 45.5402 51.1675 44.7195 53.6225C43.8988 56.0774 43.4669 59.3797 43.4237 63.5292ZM43.4561 81.4851C44.6007 82.6366 45.9721 83.2123 47.5703 83.2123C48.6502 83.2123 49.6221 82.9516 50.4859 82.4302C51.3714 81.887 52.0733 81.1701 52.5916 80.2794C53.1316 79.3886 53.4015 78.411 53.4015 77.3465C53.4015 75.7388 52.8292 74.3592 51.6846 73.2078C50.5399 72.0564 49.1685 71.4806 47.5703 71.4806C45.9721 71.4806 44.6007 72.0564 43.4561 73.2078C42.3115 74.3592 41.7391 75.7388 41.7391 77.3465C41.7391 78.9541 42.3115 80.3337 43.4561 81.4851Z" fill="#6534FF"/>
</svg>

<svg xmlns="http://www.w3.org/2000/svg" width="98" height="98" fill="none"><path fill="#6534FF" fill-rule="evenodd" d="M49 98c27.062 0 49-21.938 49-49S76.062 0 49 0 0 21.938 0 49s21.938 49 49 49Zm-5.576-34.47v.39h7.775v-.39c.043-2.695.324-4.943.842-6.747.518-1.803 1.35-3.356 2.494-4.66 1.145-1.325 2.668-2.585 4.568-3.78 1.9-1.173 3.52-2.52 4.86-4.04a15.995 15.995 0 0 0 3.11-5.182c.734-1.934 1.1-4.095 1.1-6.485 0-3.39-.777-6.41-2.332-9.06-1.533-2.65-3.714-4.736-6.543-6.256-2.808-1.521-6.112-2.282-9.913-2.282-3.5 0-6.685.696-9.557 2.086-2.851 1.39-5.151 3.4-6.9 6.029-1.728 2.629-2.678 5.79-2.851 9.483h8.163c.173-2.564.81-4.639 1.912-6.225 1.101-1.585 2.473-2.748 4.114-3.486a12.341 12.341 0 0 1 5.119-1.108c2.03 0 3.876.423 5.54 1.27a10.027 10.027 0 0 1 3.984 3.618c.993 1.564 1.49 3.41 1.49 5.54 0 1.716-.302 3.28-.907 4.692a12.329 12.329 0 0 1-2.397 3.748 17.032 17.032 0 0 1-3.434 2.77c-2.117 1.282-3.931 2.683-5.443 4.204-1.512 1.52-2.678 3.508-3.499 5.964-.82 2.454-1.252 5.757-1.295 9.906Zm.032 17.955c1.145 1.152 2.516 1.727 4.114 1.727 1.08 0 2.052-.26 2.916-.782a6.07 6.07 0 0 0 2.106-2.15c.54-.891.81-1.869.81-2.933 0-1.608-.573-2.988-1.717-4.14-1.145-1.15-2.517-1.726-4.115-1.726-1.598 0-2.97.575-4.114 1.727-1.145 1.151-1.717 2.53-1.717 4.139 0 1.607.573 2.987 1.717 4.138Z" clip-rule="evenodd"/></svg>
